X: 518
T: Pie baicai
L: 1/8
M: 2/4
K: G
e d e d [I:setbarnb 1]| 
B ed2 | 
e d B A | 
G EG2 | 
d d B d | 
G BA2 | 
d G G E | 
D4 |]

@@@ Tune index: 9392
